public/icons/solidity.svg

<svg width="64" height="64" viewBox="0 0 64 64" fill="none" xmlns="http://www.w3.org/2000/svg">
<rect width="64" height="64" rx="3" fill="white"/>
<g opacity="0.45">
<path d="M39.7929 1.68421L32.7378 14.2321H18.6152L25.6703 1.68421H39.7929Z" fill="#010101"/>
</g>
<g opacity="0.6">
<path d="M32.7379 14.2321H46.8481L39.793 1.68421H25.6704L32.7379 14.2321Z" fill="#010101"/>
</g>
<g opacity="0.8">
<path d="M25.6703 26.78L32.7378 14.2321L25.6703 1.68421L18.6152 14.2321L25.6703 26.78Z" fill="#010101"/>
</g>
<g opacity="0.45">
<path d="M25.7446 45.6024L32.7997 33.0545H46.9223L39.8548 45.6024H25.7446Z" fill="#010101"/>
</g>
<g opacity="0.6">
<path d="M32.8001 33.0545H18.6899L25.745 45.6024H39.8552L32.8001 33.0545Z" fill="#010101"/>
</g>
<g opacity="0.8">
<path d="M39.8544 20.5061L32.7993 33.054L39.8544 45.6019L46.9219 33.054L39.8544 20.5061Z" fill="#010101"/>
</g>
<path d="M17.2639 57.6035C17.2639 57.8019 17.3506 57.9507 17.5118 58.0499C17.673 58.1491 17.8714 58.2359 18.1194 58.2979C18.355 58.3599 18.6154 58.4219 18.9005 58.4715C19.1857 58.5211 19.4461 58.5954 19.6817 58.6822C19.9173 58.7814 20.1156 58.9054 20.2892 59.079C20.4504 59.2402 20.5372 59.4758 20.5372 59.761C20.5372 60.0089 20.4752 60.2197 20.3636 60.3933C20.252 60.5669 20.1032 60.7157 19.9297 60.8273C19.7561 60.9389 19.5577 61.0257 19.3469 61.0877C19.1361 61.1497 18.9129 61.1745 18.7145 61.1745C18.4914 61.1745 18.2682 61.1497 18.045 61.1001C17.8218 61.0505 17.6234 60.9761 17.4498 60.8645C17.2763 60.7529 17.1275 60.6165 17.0159 60.4429C16.9043 60.2693 16.8423 60.0461 16.8423 59.7858C16.8423 59.699 16.8547 59.6246 16.8795 59.5626C16.9043 59.5006 16.9663 59.4758 17.0779 59.4758C17.1275 59.4758 17.1647 59.5006 17.1895 59.5502C17.2143 59.5998 17.2267 59.6494 17.2267 59.6866C17.2267 59.9098 17.2639 60.0957 17.3506 60.2445C17.4374 60.3933 17.5366 60.5049 17.6854 60.5793C17.8218 60.6661 17.983 60.7157 18.169 60.7529C18.355 60.7901 18.5286 60.8025 18.7269 60.8025C18.8757 60.8025 19.0369 60.7777 19.2105 60.7405C19.3841 60.7033 19.5329 60.6413 19.6817 60.5545C19.8181 60.4677 19.9421 60.3685 20.0289 60.2321C20.128 60.0957 20.1652 59.9469 20.1652 59.761C20.1652 59.5378 20.0784 59.3642 19.9173 59.2402C19.7561 59.1162 19.5577 59.017 19.3097 58.955C19.0741 58.8806 18.8137 58.8186 18.5286 58.7814C18.2434 58.7318 17.983 58.6698 17.7474 58.583C17.5118 58.4963 17.3135 58.3847 17.1399 58.2359C16.9787 58.0871 16.8919 57.8887 16.8919 57.6283C16.8919 57.4051 16.9539 57.2191 17.0655 57.0704C17.1771 56.9216 17.3258 56.81 17.487 56.7232C17.6606 56.6364 17.8466 56.5744 18.045 56.5496C18.2434 56.5124 18.4418 56.5 18.6154 56.5C18.8261 56.5 19.0493 56.5248 19.2601 56.562C19.4709 56.6116 19.6693 56.6736 19.8305 56.7728C20.0041 56.872 20.1404 57.0084 20.252 57.182C20.3636 57.3555 20.4132 57.5663 20.4132 57.8143C20.4132 57.8639 20.3884 57.9135 20.3512 57.9383C20.3016 57.9755 20.2644 57.9879 20.2148 57.9879C20.1528 57.9879 20.1032 57.9631 20.0784 57.9259C20.0537 57.8763 20.0413 57.8391 20.0413 57.7895C20.0041 57.5911 19.9421 57.4299 19.8429 57.3059C19.7437 57.182 19.6321 57.0952 19.5081 57.0332C19.3717 56.9712 19.2353 56.9216 19.0865 56.9092C18.9377 56.8844 18.7765 56.872 18.6278 56.872C18.5038 56.872 18.3674 56.8844 18.2062 56.8968C18.0574 56.9092 17.9086 56.9464 17.7722 57.0084C17.6358 57.058 17.5118 57.1324 17.425 57.2315C17.3135 57.3183 17.2639 57.4423 17.2639 57.6035Z" fill="#020202"/>
<path d="M24.3932 56.4262C24.7032 56.4262 25.0007 56.4882 25.2735 56.6246C25.5463 56.761 25.7819 56.9346 25.9679 57.1454C26.1663 57.3561 26.315 57.6165 26.4266 57.9017C26.5382 58.1869 26.5878 58.4845 26.5878 58.782C26.5878 59.092 26.5382 59.3896 26.4266 59.6624C26.315 59.9475 26.1663 60.1955 25.9679 60.4187C25.7695 60.6295 25.5463 60.8031 25.2735 60.9395C25.0007 61.0759 24.7156 61.1379 24.3932 61.1379C24.0832 61.1379 23.7856 61.0759 23.5252 60.9395C23.2649 60.8031 23.0293 60.6295 22.8309 60.4187C22.6325 60.2079 22.4837 59.9475 22.3721 59.6624C22.2605 59.3772 22.2109 59.0796 22.2109 58.782C22.2109 58.4721 22.2605 58.1745 22.3721 57.9017C22.4837 57.6165 22.6325 57.3685 22.8309 57.1454C23.0293 56.9346 23.2525 56.761 23.5252 56.6246C23.7856 56.5006 24.0832 56.4262 24.3932 56.4262ZM24.3932 60.7659C24.666 60.7659 24.9139 60.7039 25.1247 60.5923C25.3479 60.4807 25.5339 60.3319 25.6951 60.1583C25.8563 59.9723 25.9803 59.774 26.0547 59.526C26.1415 59.2904 26.1786 59.0424 26.1786 58.7944C26.1786 58.5465 26.1415 58.2985 26.0547 58.0629C25.9679 57.8273 25.8439 57.6165 25.6951 57.4429C25.5339 57.2569 25.3479 57.1206 25.1247 57.009C24.9015 56.8974 24.6536 56.8354 24.3932 56.8354C24.1328 56.8354 23.8848 56.8974 23.674 57.009C23.4508 57.1206 23.2649 57.2693 23.1037 57.4429C22.9425 57.6289 22.8185 57.8273 22.7317 58.0629C22.6449 58.2985 22.5953 58.5465 22.5953 58.7944C22.5953 59.0424 22.6449 59.2904 22.7317 59.526C22.8185 59.7616 22.9425 59.9723 23.1037 60.1583C23.2649 60.3443 23.4508 60.4807 23.674 60.5923C23.8972 60.7039 24.1328 60.7659 24.3932 60.7659Z" fill="#020202"/>
<path d="M28.5717 52.7685C28.6213 52.7685 28.6709 52.7933 28.7081 52.8305C28.7453 52.8677 28.7577 52.9173 28.7577 52.9545V60.8775C28.7577 60.9271 28.7453 60.9643 28.7081 61.0015C28.6709 61.0387 28.6213 61.0635 28.5717 61.0635C28.5221 61.0635 28.4725 61.0387 28.4353 61.0015C28.3981 60.9643 28.3857 60.9147 28.3857 60.8775V52.9545C28.3857 52.9049 28.3981 52.8677 28.4353 52.8305C28.4725 52.7809 28.5097 52.7685 28.5717 52.7685Z" fill="#020202"/>
<path d="M30.9896 55.2364C30.9896 55.3232 30.9524 55.3852 30.8904 55.4472C30.8284 55.5092 30.754 55.534 30.6796 55.534C30.5928 55.534 30.5184 55.5092 30.4564 55.4472C30.3944 55.3852 30.3696 55.3232 30.3696 55.2364C30.3696 55.1496 30.3944 55.0752 30.4564 55.0132C30.5184 54.9512 30.5928 54.9264 30.6796 54.9264C30.7664 54.9264 30.8284 54.9512 30.8904 55.0132C30.9524 55.0752 30.9896 55.1496 30.9896 55.2364ZM30.6672 56.5631C30.7168 56.5631 30.754 56.5879 30.7912 56.6251C30.8284 56.6623 30.8532 56.7119 30.8532 56.7491V60.8656C30.8532 60.9152 30.8284 60.9524 30.7912 60.9896C30.754 61.0267 30.7044 61.0515 30.6672 61.0515C30.6176 61.0515 30.568 61.0267 30.5308 60.9896C30.4936 60.9524 30.4812 60.9028 30.4812 60.8656V56.7491C30.4812 56.6995 30.4936 56.6623 30.5308 56.6251C30.568 56.5879 30.6176 56.5631 30.6672 56.5631Z" fill="#020202"/>
<path d="M36.8422 52.7561C36.8918 52.7561 36.9414 52.7809 36.9786 52.8181C37.0158 52.8553 37.0282 52.9049 37.0282 52.9421V60.8527C37.0282 60.9767 36.9662 61.0387 36.8422 61.0387C36.7183 61.0387 36.6563 60.9767 36.6563 60.8527V59.9848C36.4703 60.3319 36.2099 60.6171 35.8751 60.8403C35.5403 61.0511 35.1684 61.1627 34.7716 61.1627C34.4616 61.1627 34.164 61.1007 33.9037 60.9643C33.6433 60.8279 33.4077 60.6543 33.2093 60.4435C33.0109 60.2327 32.8621 59.9724 32.7505 59.6872C32.639 59.402 32.5894 59.1044 32.5894 58.8068C32.5894 58.4969 32.639 58.1993 32.7505 57.9265C32.8621 57.6413 33.0109 57.3934 33.2093 57.1702C33.4077 56.9594 33.6309 56.7858 33.9037 56.6494C34.164 56.513 34.4616 56.451 34.7716 56.451C35.1808 56.451 35.5527 56.5626 35.8751 56.7858C36.2099 57.009 36.4703 57.2942 36.6563 57.6413V52.9297C36.6563 52.8801 36.6687 52.8429 36.7059 52.8057C36.7431 52.7685 36.7926 52.7561 36.8422 52.7561ZM34.7592 60.7907C35.032 60.7907 35.28 60.7287 35.4907 60.6171C35.7139 60.5055 35.8999 60.3567 36.0611 60.1831C36.2223 59.9972 36.3463 59.7988 36.4207 59.5508C36.5075 59.3152 36.5447 59.0672 36.5447 58.8192C36.5447 58.5713 36.5075 58.3233 36.4207 58.0877C36.3339 57.8521 36.2099 57.6413 36.0611 57.4553C35.8999 57.2694 35.7139 57.133 35.4907 57.0214C35.2676 56.9098 35.0196 56.8478 34.7592 56.8478C34.4988 56.8478 34.2508 56.9098 34.04 57.0214C33.8169 57.133 33.6309 57.2818 33.4697 57.4553C33.3085 57.6413 33.1845 57.8397 33.0977 58.0877C33.0109 58.3233 32.9613 58.5713 32.9613 58.8192C32.9613 59.0672 33.0109 59.3152 33.0977 59.5508C33.1845 59.7864 33.3085 59.9972 33.4697 60.1831C33.6309 60.3691 33.8169 60.5055 34.04 60.6171C34.2508 60.7287 34.4988 60.7907 34.7592 60.7907Z" fill="#020202"/>
<path d="M39.3216 55.2364C39.3216 55.3232 39.2844 55.3852 39.2224 55.4472C39.1604 55.5092 39.086 55.534 39.0116 55.534C38.9248 55.534 38.8505 55.5092 38.7885 55.4472C38.7265 55.3852 38.7017 55.3232 38.7017 55.2364C38.7017 55.1496 38.7265 55.0752 38.7885 55.0132C38.8505 54.9512 38.9248 54.9264 39.0116 54.9264C39.0984 54.9264 39.1604 54.9512 39.2224 55.0132C39.2968 55.0752 39.3216 55.1496 39.3216 55.2364ZM39.0116 56.5631C39.0612 56.5631 39.0984 56.5879 39.1356 56.6251C39.1728 56.6623 39.1976 56.7119 39.1976 56.7491V60.8656C39.1976 60.9152 39.1728 60.9524 39.1356 60.9896C39.0984 61.0267 39.0488 61.0515 39.0116 61.0515C38.962 61.0515 38.9124 61.0267 38.8752 60.9896C38.838 60.9524 38.8257 60.9028 38.8257 60.8656V56.7491C38.8257 56.6995 38.838 56.6623 38.8752 56.6251C38.9124 56.5879 38.962 56.5631 39.0116 56.5631Z" fill="#020202"/>
<path d="M43.2896 56.538C43.3392 56.538 43.3888 56.5628 43.426 56.6C43.4632 56.6372 43.4756 56.6868 43.4756 56.724C43.4756 56.848 43.4136 56.91 43.2896 56.91H42.2728V60.8901C42.2728 60.9397 42.2604 60.9769 42.2232 61.0141C42.186 61.0513 42.1365 61.0761 42.0869 61.0761C42.0373 61.0761 41.9877 61.0513 41.9505 61.0141C41.9133 60.9769 41.9009 60.9273 41.9009 60.8901V56.91H40.9213C40.7973 56.91 40.7354 56.848 40.7354 56.724C40.7354 56.6744 40.7478 56.6372 40.785 56.6C40.8221 56.5628 40.8717 56.538 40.9213 56.538H41.9009V55.0749C41.9009 54.9509 41.9629 54.8889 42.0869 54.8889C42.2108 54.8889 42.2728 54.9509 42.2728 55.0749V56.538H43.2896Z" fill="#020202"/>
<path d="M48.5344 56.5247C48.6584 56.5247 48.7204 56.5867 48.7204 56.7107C48.7204 56.7231 48.6832 56.8223 48.6088 57.0082C48.5344 57.1942 48.4476 57.4422 48.336 57.7398C48.2244 58.0374 48.088 58.3845 47.9392 58.7689C47.7905 59.1533 47.6293 59.5501 47.4681 59.9716C47.3069 60.3808 47.1457 60.79 46.9969 61.1867C46.8481 61.5835 46.6993 61.9431 46.5753 62.2779C46.439 62.6126 46.3398 62.8854 46.2406 63.121C46.1538 63.3566 46.0918 63.493 46.067 63.555C46.0174 63.6418 45.9678 63.679 45.8934 63.679C45.8438 63.679 45.8066 63.6542 45.7694 63.617C45.7322 63.5798 45.7074 63.5302 45.7074 63.493C45.7074 63.4806 45.7322 63.4062 45.7694 63.2822C45.819 63.1582 45.8686 63.0094 45.9306 62.8482C45.9926 62.6746 46.067 62.4887 46.1414 62.2903C46.2282 62.0919 46.3026 61.8935 46.377 61.7075C46.4514 61.5215 46.5134 61.3603 46.5629 61.2239C46.6125 61.0876 46.6497 61.0008 46.6745 60.9512C46.6621 60.9388 46.6125 60.8396 46.5258 60.6288C46.439 60.418 46.3274 60.1576 46.191 59.8476C46.0546 59.5377 45.9182 59.2029 45.7818 58.8433C45.633 58.4837 45.4966 58.149 45.3726 57.839C45.2486 57.529 45.1371 57.2686 45.0503 57.0578C44.9635 56.8471 44.9263 56.7355 44.9263 56.7231C44.9263 56.5991 44.9883 56.5371 45.1123 56.5371C45.199 56.5371 45.261 56.5743 45.2858 56.6487L46.8605 60.48L48.3484 56.6611C48.3856 56.5619 48.4476 56.5247 48.5344 56.5247Z" fill="#020202"/>
</svg>

<svg xmlns="http://www.w3.org/2000/svg" width="64" height="64" fill="none"><rect width="64" height="64" fill="#fff" rx="3"/><path fill="#010101" d="m39.793 1.684-7.055 12.548H18.615L25.67 1.684h14.123Z" opacity=".45"/><path fill="#010101" d="M32.738 14.232h14.11L39.793 1.684H25.67l7.068 12.548Z" opacity=".6"/><path fill="#010101" d="m25.67 26.78 7.068-12.548L25.67 1.684l-7.055 12.548L25.67 26.78Z" opacity=".8"/><path fill="#010101" d="M25.745 45.602 32.8 33.055h14.122l-7.067 12.547h-14.11Z" opacity=".45"/><path fill="#010101" d="M32.8 33.054H18.69l7.055 12.548h14.11L32.8 33.055Z" opacity=".6"/><path fill="#010101" d="M39.854 20.506 32.8 33.054l7.055 12.548 7.068-12.548-7.068-12.548Z" opacity=".8"/><path fill="#020202" d="M17.264 57.603c0 .199.087.348.248.447.161.1.36.186.607.248.236.062.496.124.782.173.285.05.545.124.78.211.236.1.435.223.608.397.161.161.248.397.248.682 0 .248-.062.459-.173.632a1.45 1.45 0 0 1-.434.434 2.257 2.257 0 0 1-1.215.348c-.224 0-.447-.025-.67-.075a1.812 1.812 0 0 1-.595-.236 1.41 1.41 0 0 1-.434-.421 1.204 1.204 0 0 1-.174-.657.6.6 0 0 1 .038-.223c.024-.062.086-.087.198-.087.05 0 .087.025.111.074.025.05.038.1.038.137 0 .223.037.409.124.558.086.148.186.26.334.334.137.087.298.137.484.174.186.037.36.05.558.05.149 0 .31-.025.483-.063.174-.037.323-.099.472-.186a1.08 1.08 0 0 0 .347-.322.756.756 0 0 0 .136-.471.624.624 0 0 0-.248-.52 1.627 1.627 0 0 0-.607-.286 4.538 4.538 0 0 0-.781-.174 4.49 4.49 0 0 1-.782-.198 1.942 1.942 0 0 1-.607-.347.784.784 0 0 1-.248-.608c0-.223.062-.409.174-.558.111-.148.26-.26.421-.347.174-.087.36-.149.558-.173.198-.038.397-.05.57-.05.211 0 .434.025.645.062.21.05.41.112.57.21.174.1.31.236.422.41.112.173.161.384.161.632 0 .05-.025.1-.062.124a.207.207 0 0 1-.136.05c-.062 0-.112-.025-.137-.062a.284.284 0 0 1-.037-.137c-.037-.198-.099-.36-.198-.483a.987.987 0 0 0-.335-.273 1.27 1.27 0 0 0-.421-.124 2.862 2.862 0 0 0-.46-.037c-.123 0-.26.012-.42.025-.15.012-.298.05-.435.111a.842.842 0 0 0-.347.223c-.111.087-.161.211-.161.372ZM24.393 56.426c.31 0 .608.062.88.199.273.136.509.31.695.52.198.211.347.471.459.757.111.285.16.582.16.88 0 .31-.049.608-.16.88-.112.285-.26.534-.46.757a2.43 2.43 0 0 1-.694.52 1.912 1.912 0 0 1-.88.199c-.31 0-.607-.062-.868-.198a2.616 2.616 0 0 1-.694-.521 2.334 2.334 0 0 1-.459-.757 2.405 2.405 0 0 1-.161-.88 2.47 2.47 0 0 1 .62-1.637c.198-.21.422-.384.694-.52.26-.124.558-.199.868-.199Zm0 4.34c.273 0 .52-.062.732-.174.223-.111.409-.26.57-.434.161-.186.285-.384.36-.632a2.11 2.11 0 0 0 .124-.732 2.036 2.036 0 0 0-.483-1.352 1.788 1.788 0 0 0-.571-.433 1.63 1.63 0 0 0-.732-.174c-.26 0-.508.062-.719.174-.223.112-.41.26-.57.434a1.968 1.968 0 0 0-.372.62 2.124 2.124 0 0 0-.137.731 2.124 2.124 0 0 0 .509 1.364c.16.186.347.323.57.434.223.112.459.174.72.174ZM28.572 52.769a.2.2 0 0 1 .136.062c.037.037.05.086.05.123v7.923a.16.16 0 0 1-.05.124.2.2 0 0 1-.136.063.2.2 0 0 1-.137-.063.178.178 0 0 1-.05-.123v-7.923a.16.16 0 0 1 .05-.124c.038-.05.075-.063.137-.063ZM30.99 55.236c0 .087-.038.15-.1.211a.29.29 0 0 1-.21.087.299.299 0 0 1-.224-.087.272.272 0 0 1-.086-.21c0-.087.024-.162.086-.224a.299.299 0 0 1 .224-.087c.086 0 .148.025.21.087a.31.31 0 0 1 .1.223Zm-.323 1.327c.05 0 .087.025.124.062.037.037.062.087.062.124v4.117c0 .05-.025.086-.062.124-.037.037-.087.061-.124.061a.2.2 0 0 1-.136-.061.178.178 0 0 1-.05-.124v-4.117a.16.16 0 0 1 .05-.124.2.2 0 0 1 .136-.062ZM36.842 52.756a.2.2 0 0 1 .137.062c.037.037.05.087.05.124v7.91c0 .125-.063.187-.187.187s-.186-.062-.186-.186v-.868a2.35 2.35 0 0 1-.78.855c-.336.211-.708.323-1.104.323a1.86 1.86 0 0 1-.868-.199 2.615 2.615 0 0 1-.695-.52 2.333 2.333 0 0 1-.459-.757 2.407 2.407 0 0 1-.16-.88c0-.31.049-.608.16-.88.112-.286.26-.534.46-.757a2.43 2.43 0 0 1 .694-.52 1.86 1.86 0 0 1 .868-.199 1.9 1.9 0 0 1 1.103.335c.335.223.595.508.781.855V52.93a.16.16 0 0 1 .05-.124.186.186 0 0 1 .136-.05Zm-2.083 8.035c.273 0 .521-.062.732-.174.223-.111.409-.26.57-.434.161-.186.285-.384.36-.632a2.11 2.11 0 0 0 .124-.732 2.11 2.11 0 0 0-.484-1.364 1.79 1.79 0 0 0-.57-.434 1.63 1.63 0 0 0-.732-.173c-.26 0-.508.062-.719.173a1.99 1.99 0 0 0-.57.434 1.895 1.895 0 0 0-.372.633 2.124 2.124 0 0 0-.137.731 2.124 2.124 0 0 0 .509 1.364c.16.186.347.322.57.434.21.112.459.174.72.174ZM39.322 55.236c0 .087-.038.15-.1.211a.29.29 0 0 1-.21.087.299.299 0 0 1-.224-.087.272.272 0 0 1-.086-.21.299.299 0 0 1 .31-.31c.086 0 .148.024.21.086a.27.27 0 0 1 .1.223Zm-.31 1.327c.05 0 .086.025.124.062.037.037.062.087.062.124v4.117c0 .05-.025.086-.062.124-.038.037-.087.061-.124.061a.2.2 0 0 1-.137-.061.178.178 0 0 1-.05-.124v-4.117a.16.16 0 0 1 .05-.124.2.2 0 0 1 .137-.062ZM43.29 56.538a.2.2 0 0 1 .136.062c.037.037.05.087.05.124 0 .124-.062.186-.186.186h-1.017v3.98a.16.16 0 0 1-.05.124.199.199 0 0 1-.136.062.2.2 0 0 1-.137-.062.178.178 0 0 1-.05-.124v-3.98h-.979c-.124 0-.186-.062-.186-.186a.16.16 0 0 1 .05-.124.199.199 0 0 1 .136-.062h.98v-1.463c0-.124.062-.186.186-.186s.186.062.186.186v1.463h1.017ZM48.534 56.525c.124 0 .186.062.186.186 0 .012-.037.111-.111.297-.075.186-.161.434-.273.732-.112.297-.248.645-.397 1.029-.148.384-.31.781-.47 1.203-.162.409-.323.818-.472 1.215-.149.397-.298.756-.422 1.09-.136.336-.235.608-.334.844-.087.236-.15.372-.174.434-.05.087-.1.124-.174.124-.05 0-.086-.025-.124-.062-.037-.037-.062-.087-.062-.124 0-.012.025-.087.062-.21.05-.125.1-.274.162-.435.062-.173.136-.36.21-.558.087-.198.162-.396.236-.582.074-.186.136-.348.186-.484.05-.136.087-.223.111-.273a2.158 2.158 0 0 1-.148-.322 36.62 36.62 0 0 0-.335-.781c-.136-.31-.273-.645-.41-1.005a92.08 92.08 0 0 1-.408-1.004c-.124-.31-.236-.57-.323-.781a2.7 2.7 0 0 1-.124-.335c0-.124.062-.186.186-.186.087 0 .149.037.174.112l1.575 3.831 1.487-3.819c.038-.1.1-.136.186-.136Z"/></svg>
